X:230
T:McGovern's Favourite
Z: id:dc-reel-211
M:C
L:1/8
K:A Dorian
GF|E2AE GED2|GFGB edBd|eaaf gedB|AcBG AGED|!
E2AE GED2|GFGB edBd|eaaf gedB|AcBc A2:|!
eg|a2bg agea|gedB GABd|eaaf gedB|AcBG AGED|!
[1 a2bg agea|g2ga g2gf|eaaf gedB|AcBG A3:|!
[2 E2AE GED2|GFGB edBd|eaaf gedB|AcBc A2|]!

